X:1
T: Lady Clare
C:
R:Strathspey
Q: 128
K:F
M:4/4
L:1/16
|:f2|cA3 A3c d4-d3f|cA3 A3d cA3 A3d|cA3 A3c d4-d3f|c3f agfe f6 f2|
cA3 A3c d4-d3f|cA3 A3d cA3 A3d|cA3 A3c d4-d3f|c3f agfe f6 c2|
f3g a3f b3g a3f|b3a g3f ec3 c3e|f3g a3f b3g a3f|gb3 a3g f6 c2|
f3g a3f b3g a3f|b3a g3f ec3 c3e|f3g a3f b3g a3f|gb3 a3g f6:|
